production/_assets/svg/icon-pending.svg

<svg xmlns="http://www.w3.org/2000/svg" width="14" height="14" viewBox="0 0 14 14">
  <g fill="#E75E40" fill-rule="evenodd">
    <path d="M12.5,7 C12.5,3.96243388 10.0375661,1.5 7,1.5 C3.96243388,1.5 1.5,3.96243388 1.5,7 C1.5,10.0375661 3.96243388,12.5 7,12.5 C10.0375661,12.5 12.5,10.0375661 12.5,7 Z M0,7 C0,3.13400675 3.13400675,0 7,0 C10.8659932,0 14,3.13400675 14,7 C14,10.8659932 10.8659932,14 7,14 C3.13400675,14 0,10.8659932 0,7 Z"/>
    <path d="M4.69999981,5.30065012 C4.69999981,5.13460564 4.83842754,5 5.00354719,5 L5.89645243,5 C6.06409702,5 6.19999981,5.13308716 6.19999981,5.30065012 L6.19999981,8.69934988 C6.19999981,8.86539436 6.06157207,9 5.89645243,9 L5.00354719,9 C4.8359026,9 4.69999981,8.86691284 4.69999981,8.69934988 L4.69999981,5.30065012 Z M7.69999981,5.30065012 C7.69999981,5.13460564 7.83842754,5 8.00354719,5 L8.89645243,5 C9.06409702,5 9.19999981,5.13308716 9.19999981,5.30065012 L9.19999981,8.69934988 C9.19999981,8.86539436 9.06157207,9 8.89645243,9 L8.00354719,9 C7.8359026,9 7.69999981,8.86691284 7.69999981,8.69934988 L7.69999981,5.30065012 Z"/>
  </g>
</svg>

<svg xmlns="http://www.w3.org/2000/svg" viewBox="0 0 14 14" enable-background="new 0 0 14 14"><path d="M12.5,7c0-3-2.5-5.5-5.5-5.5S1.5,4,1.5,7S4,12.5,7,12.5S12.5,10,12.5,7z M0,7c0-3.9,3.1-7,7-7s7,3.1,7,7s-3.1,7-7,7
		S0,10.9,0,7z"/><path d="m4.7 5.3c0-.2.1-.3.3-.3h.9c.2 0 .3.1.3.3v3.4c0 .2-.1.3-.3.3h-.9c-.2 0-.3-.1-.3-.3v-3.4m3 0c0-.2.1-.3.3-.3h.9c.2 0 .3.1.3.3v3.4c0 .2-.1.3-.3.3h-.9c-.2 0-.3-.1-.3-.3v-3.4"/></svg>
